symbolic/32x32/apps/cerebro.svg

<svg xmlns="http://www.w3.org/2000/svg" width="32" height="32"><path style="opacity:.2" d="M16 3A14 14 0 0 0 2 17a14 14 0 0 0 14 14 14 14 0 0 0 14-14A14 14 0 0 0 16 3z"/><path style="fill:#e4e4e4" d="M16 2A14 14 0 0 0 2 16a14 14 0 0 0 14 14 14 14 0 0 0 14-14A14 14 0 0 0 16 2z"/><path style="fill:none;stroke:#454545;stroke-width:3" d="M23.2 20.2 16 24.3l-7.5-4.1v-8.4L16 7.7l7.2 4.1"/><path style="fill:none;stroke:#8644dc;stroke-width:2" d="m20 18.1-4 2.1-4-2.1v-4.2l4-2.1 4 2.1"/><path style="fill:#fff;opacity:.1" d="M16 2A14 14 0 0 0 2 16a14 14 0 0 0 .021.414A14 14 0 0 1 16 3a14 14 0 0 1 13.979 13.586A14 14 0 0 0 30 16 14 14 0 0 0 16 2z"/></svg>

<svg xmlns="http://www.w3.org/2000/svg" width="32" height="32" version="1.1">
 <path style="opacity:0.2" d="M 16,3 A 14,14 0 0 0 2,17 14,14 0 0 0 16,31 14,14 0 0 0 30,17 14,14 0 0 0 16,3 Z"/>
 <path style="fill:#e4e4e4" d="M 16,2 A 14,14 0 0 0 2,16 14,14 0 0 0 16,30 14,14 0 0 0 30,16 14,14 0 0 0 16,2 Z"/>
 <path style="fill:none;stroke:#454545;stroke-width:3" d="M 23.2,20.2 16,24.3 8.5,20.2 v -8.4 l 7.5,-4.1 7.2,4.1"/>
 <path style="fill:none;stroke:#8644dc;stroke-width:2" d="m 20,18.1 -4,2.1 -4,-2.1 v -4.2 l 4,-2.1 4,2.1"/>
 <path style="fill:#ffffff;opacity:0.1" d="M 16 2 A 14 14 0 0 0 2 16 A 14 14 0 0 0 2.0214844 16.414062 A 14 14 0 0 1 16 3 A 14 14 0 0 1 29.978516 16.585938 A 14 14 0 0 0 30 16 A 14 14 0 0 0 16 2 z"/>
</svg>
